files/img/company2.svg

<svg width="130" height="130" fill="none" xmlns="http://www.w3.org/2000/svg">
  <path d="M60.3527 17.1609c1.4724-3.3034 2.209-4.9551 3.2342-5.4637a3.1782 3.1782 0 0 1 2.8265 0c1.0253.5086 1.7618 2.1603 3.2342 5.4637l11.7284 26.312c.4357.9765.6532 1.4648.9903 1.8387a3.1777 3.1777 0 0 0 1.0685.7767c.4598.2048.9916.2609 2.055.3731l28.6482 3.0237c3.597.3796 5.395.5694 6.196 1.3872a3.1814 3.1814 0 0 1 .873 2.6887c-.166 1.1322-1.51 2.3425-4.196 4.7639L95.6103 77.6105c-.7938.7155-1.1913 1.0736-1.4426 1.5093a3.1795 3.1795 0 0 0-.4083 1.2568c-.0528.5005.0579 1.0233.2799 2.0696l5.9777 28.1808c.75 3.538 1.125 5.307.595 6.32a3.1787 3.1787 0 0 1-2.2872 1.662c-1.1283.191-2.6948-.712-5.8279-2.519l-24.9545-14.393c-.9261-.534-1.3891-.801-1.8814-.906a3.1987 3.1987 0 0 0-1.3216 0c-.4923.105-.9554.372-1.8814.906L37.5036 116.09c-3.1329 1.807-4.6994 2.71-5.8278 2.519a3.178 3.178 0 0 1-2.2871-1.662c-.5304-1.013-.1552-2.782.5953-6.32l5.9771-28.1808c.2219-1.0463.3328-1.5691.2801-2.0696a3.1827 3.1827 0 0 0-.4083-1.2568c-.2516-.4357-.6487-.7938-1.4429-1.5093L12.9901 58.3249c-2.6866-2.4214-4.03-3.6317-4.197-4.7639a3.1804 3.1804 0 0 1 .8736-2.6887c.8006-.8178 2.599-1.0076 6.1957-1.3872l28.6485-3.0237c1.0633-.1122 1.5949-.1683 2.0546-.3731a3.1806 3.1806 0 0 0 1.069-.7767c.3368-.3739.5544-.8622.9898-1.8387l11.7284-26.312Z" stroke="#F6B17A" stroke-width="5" stroke-linecap="round" stroke-linejoin="round"/>
  <path d="M56.5263 87.0923c-.616 0-1.134-.21-1.554-.63-.392-.42-.588-.924-.588-1.512 0-.616.196-1.12.588-1.512l11.928-13.944c.84-.98 1.484-1.904 1.932-2.772.476-.868.714-1.694.714-2.478 0-1.232-.21-2.296-.63-3.192-.42-.896-1.022-1.582-1.806-2.058-.784-.504-1.722-.756-2.814-.756-1.064 0-2.03.28-2.898.84-.84.532-1.512 1.26-2.016 2.184-.476.896-.714 1.89-.714 2.982 0 .56-.21 1.05-.63 1.47-.392.42-.896.63-1.512.63-.588 0-1.092-.21-1.512-.63-.42-.42-.63-.91-.63-1.47 0-1.904.434-3.598 1.302-5.082.868-1.512 2.044-2.702 3.528-3.57 1.512-.868 3.206-1.302 5.082-1.302 1.904 0 3.556.406 4.956 1.218 1.4.812 2.478 1.96 3.234 3.444.784 1.484 1.176 3.248 1.176 5.292 0 .896-.196 1.806-.588 2.73-.364.924-.84 1.806-1.428 2.646-.56.84-1.134 1.596-1.722 2.268l-9.618 10.92h11.76c.616 0 1.134.224 1.554.672.42.42.63.91.63 1.47 0 .588-.21 1.092-.63 1.512-.42.42-.938.63-1.554.63h-15.54Z" fill="#F6B17A"/>
</svg>

<svg width="130" height="130" viewBox="0 0 130 130" fill="none" xmlns="http://www.w3.org/2000/svg">
<path d="M60.3527 17.1609C61.8251 13.8575 62.5617 12.2058 63.5869 11.6972C64.4774 11.2552 65.523 11.2552 66.4134 11.6972C67.4387 12.2058 68.1752 13.8575 69.6476 17.1609L81.376 43.4729C81.8117 44.4494 82.0292 44.9377 82.3663 45.3116C82.6639 45.6425 83.0284 45.9071 83.4348 46.0883C83.8946 46.2931 84.4264 46.3492 85.4898 46.4614L114.138 49.4851C117.735 49.8647 119.533 50.0545 120.334 50.8723C121.029 51.5827 121.352 52.5775 121.207 53.561C121.041 54.6932 119.697 55.9035 117.011 58.3249L95.6103 77.6105C94.8165 78.326 94.419 78.6841 94.1677 79.1198C93.9451 79.5058 93.8058 79.9339 93.7594 80.3766C93.7066 80.8771 93.8173 81.3999 94.0393 82.4462L100.017 110.627C100.767 114.165 101.142 115.934 100.612 116.947C100.151 117.829 99.3049 118.443 98.3248 118.609C97.1965 118.8 95.63 117.897 92.4969 116.09L67.5424 101.697C66.6163 101.163 66.1533 100.896 65.661 100.791C65.2253 100.699 64.775 100.699 64.3394 100.791C63.8471 100.896 63.384 101.163 62.458 101.697L37.5036 116.09C34.3707 117.897 32.8042 118.8 31.6758 118.609C30.6956 118.443 29.8495 117.829 29.3887 116.947C28.8583 115.934 29.2335 114.165 29.984 110.627L35.9611 82.4462C36.183 81.3999 36.2939 80.8771 36.2412 80.3766C36.1946 79.9339 36.0555 79.5058 35.8329 79.1198C35.5813 78.6841 35.1842 78.326 34.39 77.6105L12.9901 58.3249C10.3035 55.9035 8.96011 54.6932 8.79309 53.561C8.64807 52.5775 8.97124 51.5827 9.66667 50.8723C10.4673 50.0545 12.2657 49.8647 15.8624 49.4851L44.5109 46.4614C45.5742 46.3492 46.1058 46.2931 46.5655 46.0883C46.9723 45.9071 47.3364 45.6425 47.6345 45.3116C47.9713 44.9377 48.1889 44.4494 48.6243 43.4729L60.3527 17.1609Z" stroke="#F6B17A" stroke-width="5" stroke-linecap="round" stroke-linejoin="round"/>
<path d="M56.5263 87.0923C55.9103 87.0923 55.3923 86.8823 54.9723 86.4623C54.5803 86.0423 54.3843 85.5383 54.3843 84.9503C54.3843 84.3343 54.5803 83.8303 54.9723 83.4383L66.9003 69.4943C67.7403 68.5143 68.3843 67.5903 68.8323 66.7223C69.3083 65.8543 69.5463 65.0283 69.5463 64.2443C69.5463 63.0123 69.3363 61.9483 68.9163 61.0523C68.4963 60.1563 67.8943 59.4703 67.1103 58.9943C66.3263 58.4903 65.3883 58.2383 64.2963 58.2383C63.2323 58.2383 62.2663 58.5183 61.3983 59.0783C60.5583 59.6103 59.8863 60.3383 59.3823 61.2623C58.9063 62.1583 58.6683 63.1523 58.6683 64.2443C58.6683 64.8043 58.4583 65.2943 58.0383 65.7143C57.6463 66.1343 57.1423 66.3443 56.5263 66.3443C55.9383 66.3443 55.4343 66.1343 55.0143 65.7143C54.5943 65.2943 54.3843 64.8043 54.3843 64.2443C54.3843 62.3403 54.8183 60.6463 55.6863 59.1623C56.5543 57.6503 57.7303 56.4603 59.2143 55.5923C60.7263 54.7243 62.4203 54.2903 64.2963 54.2903C66.2003 54.2903 67.8523 54.6963 69.2523 55.5083C70.6523 56.3203 71.7303 57.4683 72.4863 58.9523C73.2703 60.4363 73.6623 62.2003 73.6623 64.2443C73.6623 65.1403 73.4663 66.0503 73.0743 66.9743C72.7103 67.8983 72.2343 68.7803 71.6463 69.6203C71.0863 70.4603 70.5123 71.2163 69.9243 71.8883L60.3063 82.8083H72.0663C72.6823 82.8083 73.2003 83.0323 73.6203 83.4803C74.0403 83.9003 74.2503 84.3903 74.2503 84.9503C74.2503 85.5383 74.0403 86.0423 73.6203 86.4623C73.2003 86.8823 72.6823 87.0923 72.0663 87.0923H56.5263Z" fill="#F6B17A"/>
</svg>
